img/service-size-icon__03.svg

<svg width="25" height="13" viewBox="0 0 25 13" fill="none" xmlns="http://www.w3.org/2000/svg">
<path d="M24.5079 0.296875H12.9252H0.492139C0.220313 0.296875 0 0.517236 0 0.788964V4.41743C0 4.68915 0.220313 4.90956 0.492139 4.90956H3.26279C7.28838 4.90956 10.5635 8.18466 10.5635 12.2102C10.5635 12.482 10.7838 12.7024 11.0556 12.7024H13.9444C14.2161 12.7024 14.4365 12.482 14.4365 12.2102C14.4365 8.18466 17.7116 4.90956 21.7373 4.90956H24.5079C24.7796 4.90956 25 4.6892 25 4.41743V0.788964C25 0.517236 24.7796 0.296875 24.5079 0.296875ZM12.4828 2.94643C12.7406 2.94643 12.9503 3.1562 12.9503 3.41396C12.9503 3.67172 12.7405 3.88149 12.4828 3.88149C12.225 3.88149 12.0152 3.67172 12.0152 3.41396C12.0152 3.1562 12.225 2.94643 12.4828 2.94643ZM24.0158 3.92529H21.7372C17.3339 3.92529 13.722 7.37773 13.4667 11.7181H11.5333C11.278 7.37782 7.66606 3.92529 3.26279 3.92529H0.984228V1.2811H11.9906V2.04824C11.6743 2.16255 11.4088 2.38379 11.2378 2.66811C10.722 2.3747 10.0603 2.04883 9.66484 2.04883C8.91211 2.04883 8.29971 2.66123 8.29971 3.41396C8.29971 4.16645 8.91211 4.77861 9.66484 4.77861C10.0602 4.77861 10.722 4.45283 11.2377 4.15961C11.4918 4.58227 11.9547 4.86567 12.4827 4.86567C13.0108 4.86567 13.4738 4.58222 13.7278 4.15957C14.2437 4.45278 14.9056 4.77861 15.3007 4.77861C16.0534 4.77861 16.6658 4.16645 16.6658 3.41396C16.6658 2.66123 16.0534 2.04883 15.3007 2.04883C14.9056 2.04883 14.2437 2.3748 13.7278 2.66821C13.5568 2.38388 13.2913 2.1626 12.9749 2.04824V1.2811H24.0158V3.92529ZM10.5485 3.41396C10.1415 3.63276 9.79062 3.78754 9.66489 3.79438C9.45483 3.79438 9.28398 3.62373 9.28398 3.41396C9.28398 3.2039 9.45483 3.03305 9.66226 3.033C9.78936 3.03989 10.141 3.19487 10.5485 3.41396ZM14.4174 3.41381C14.8246 3.19487 15.1753 3.03994 15.3007 3.03305C15.5107 3.03305 15.6816 3.20395 15.6816 3.41396C15.6816 3.62378 15.5107 3.79438 15.3033 3.79443C15.1763 3.7875 14.8249 3.63266 14.4174 3.41381Z" fill="black"/>
<path d="M6.57205 2.04897C5.93875 2.04897 5.93768 3.0332 6.57205 3.0332C7.2054 3.0332 7.20647 2.04897 6.57205 2.04897Z" fill="black"/>
<path d="M4.99561 2.04922H1.96089C1.68911 2.04922 1.46875 2.26958 1.46875 2.54136C1.46875 2.81309 1.68906 3.0335 1.96089 3.0335H4.9957C5.26748 3.0335 5.48784 2.81314 5.48784 2.54136C5.48779 2.26958 5.26743 2.04922 4.99561 2.04922Z" fill="black"/>
</svg>

<svg width="25" height="13" fill="none" xmlns="http://www.w3.org/2000/svg"><path d="M24.508.297H.492A.492.492 0 000 .789v3.628c0 .272.22.493.492.493h2.77c4.026 0 7.301 3.275 7.301 7.3 0 .272.22.492.493.492h2.888c.272 0 .492-.22.492-.492 0-4.025 3.276-7.3 7.301-7.3h2.77c.273 0 .493-.22.493-.493V.79a.492.492 0 00-.492-.492zm-12.025 2.65a.468.468 0 11-.001.936.468.468 0 010-.937zm11.533.978h-2.279c-4.403 0-8.015 3.453-8.27 7.793h-1.934c-.255-4.34-3.867-7.793-8.27-7.793H.984V1.281h11.007v.767a1.46 1.46 0 00-.753.62c-.516-.293-1.178-.62-1.573-.62a1.366 1.366 0 000 2.73c.395 0 1.057-.325 1.573-.618a1.452 1.452 0 002.49 0c.516.293 1.178.619 1.573.619.752 0 1.365-.613 1.365-1.365 0-.753-.613-1.365-1.365-1.365-.395 0-1.057.326-1.573.62a1.46 1.46 0 00-.753-.62V1.28h11.04v2.644zm-13.467-.511c-.407.219-.758.374-.884.38a.381.381 0 01-.003-.761c.127.007.479.162.886.381zm3.868 0c.408-.22.758-.374.884-.381a.381.381 0 01.002.761c-.127-.006-.478-.161-.886-.38z" fill="#000"/><path d="M6.572 2.049c-.633 0-.634.984 0 .984.633 0 .634-.984 0-.984zm-1.576.001H1.96a.492.492 0 000 .984h3.035a.492.492 0 100-.985z" fill="#000"/></svg>
